!!!!SEGMENT: pl-kk--kk-i-2--052-006_pekiel-bartlomiej--missa-secunda-agnus-dei.krn
!!!cenid: 16xx:1740
!!!COM: Pękiel, Bartłomiej
!!!COM-rismID: pe30105642
!!!CDT: <1633-~1670
!!!CNT: Polish
!!!OPR: Missa secunda
!!!OTL: Agnus Dei
!!!OMV: 006
!!!PDT:
!!!AGN: Sacred; Mass
!!!SMS-siglum: PL-Kk
!!!SMS-shelfmark: Kk.I.2
!!!SMS-shelfwork: 052-006 M
!!!NIFC-rismSourceID: 300258070
!!!NIFC-islandoraID: pl-kk:750
!!!URL-pdf-islandora: https://repozytorium.nifc.pl/islandora/object/pl-kk%3A750/datastream/PDF/view#page=91
!!!URL-scan: https://polish.musicsources.pl/pl/lokalizacje/galeria/rekopisy/5828 @EN{Scan on Polish Music Herritage in Open Access Website} @PL{Skany w portalu Dziedzictwo Muzyki Polskiej w otwartym dostępie}
!!!ONB-nifc: Części mszy: Kyrie, Gloria, Credo, Sanctus, Benedictus, Agnus Dei; skany: C: 0095-0096; A: 0199; T: 0298; B: 0400
!!!AIN: 1 alt 1 bass 1 soprn 1 tenor
!!!key: F:ion
**kern	**text	**kern	**text	**kern	**text	**kern	**text
*part4	*part4	*part3	*part3	*part2	*part2	*part1	*part1
*staff4	*staff4	*staff3	*staff3	*staff2	*staff2	*staff1	*staff1
*I"BASVS	*	*I"TENOR	*	*I"ALTVS	*	*I"DISCANTVS	*
*I'B	*	*I'T	*	*I'A	*	*I'S	*
*Ibass	*	*Itenor	*	*Ialt	*	*Isoprn	*
*ICvox	*	*ICvox	*	*ICvox	*	*ICvox	*
*mI"Basso	*	*mI"Tenore	*	*mI"Alto	*	*mI"Sooprano	*
*clefF4	*	*clefC4	*	*clefC4	*	*clefC3	*
*	*	*mclefGv2	*	*mclefGv2	*	*mclefGv2	*
*k[b-]	*	*k[b-]	*	*k[b-]	*	*k[b-]	*
*F:ion	*	*F:ion	*	*F:ion	*	*F:ion	*
*M2/1	*	*M2/1	*	*M2/1	*	*M2/1	*
*met(C|)	*	*met(C|)	*	*met(C|)	*	*met(C|)	*
*mmet(c)	*	*mmet(c)	*	*mmet(c)	*	*mmet(c)	*
*all\right	*	*all\right	*	*all\right	*	*all\right	*
=1-	=1-	=1-	=1-	=1-	=1-	=1-	=1-
1r	.	1.c	A	00r	.	00r	.
1.F	A-	.	.	.	.	.	.
*	*	*2\right	*	*	*	*	*
!	!	!LO:TX:t=P:problem:kreska pseudotaktowa	!	!	!	!	!
.	.	2A\	gnus	.	.	.	.
=2-	=2-	=2-	=2-	=2-	=2-	=2-	=2-
!	!	!	!LO:MO:mod=De-	!	!	!	!
.	.	1d	DE-	.	.	.	.
!LO:TX:t=P:problem:kreska pseudotaktowa	!	!	!	!	!	!	!
2D/	-gnus	.	.	.	.	.	.
!	!LO:MO:mod=De-	!	!LO:MO:mod=-i	!	!	!	!
1G	DE-	2B-\	-I	.	.	.	.
!	!	!LO:TX:t=P:problem:kreska pseudotaktowa	!	!	!	!	!
.	.	2G/	qui	.	.	.	.
=3-	=3-	=3-	=3-	=3-	=3-	=3-	=3-
*2\right	*	*	*	*	*	*	*
!	!LO:MO:mod=-i	!	!	!	!	!	!
2E\	-I	2.c\	tol-	00r	.	00r	.
!LO:TX:t=P:problem:kreska pseudotaktowa	!	!	!	!	!	!	!
2C/	qui	.	.	.	.	.	.
.	.	4B-\	.	.	.	.	.
2.F\	tol-	4A/	.	.	.	.	.
.	.	4G/	.	.	.	.	.
!	!	!LO:TX:t=P:problem:kreska pseudotaktowa	!	!	!	!	!
.	.	2A/	.	.	.	.	.
4E\	.	.	.	.	.	.	.
=4-	=4-	=4-	=4-	=4-	=4-	=4-	=4-
4D/	.	1B-	.	.	.	.	.
4C/	.	.	.	.	.	.	.
!LO:TX:t=P:problem:kreska pseudotaktowa	!	!	!	!	!	!	!
2D/	.	.	.	.	.	.	.
1E-X	.	2G/	-lis	.	.	.	.
!	!	!LO:TX:t=P:problem:kreska pseudotaktowa	!	!	!	!	!
.	.	2G/	pec-	.	.	.	.
=5-	=5-	=5-	=5-	=5-	=5-	=5-	=5-
!	!	!	!	!LO:TX:t=P:problem:kreska pseudotaktowa	!	!LO:TX:t=P:problem:kreska pseudotaktowa	!
2C/	lis	2.c\	-ca-	1r	.	0r	.
!LO:TX:t=P:problem:kreska pseudotaktowa	!	!	!	!	!	!	!
2C/	qui	.	.	.	.	.	.
.	.	4B-\	.	.	.	.	.
1F	tol-	4A/	.	1.c	A-	.	.
.	.	4G/	.	.	.	.	.
!	!	!LO:TX:t=P:problem:kreska pseudotaktowa	!	!	!	!	!
.	.	2A/	.	.	.	.	.
=6-	=6-	=6-	=6-	=6-	=6-	=6-	=6-
2Eny\	-lis	2G/	.	.	.	2r	.
!	!	!	!	!LO:TX:t=P:problem:kreska pseudotaktowa	!	!	!
2F\	pec-	2c\	.	2A/	-gnus	1f	A-
*lig	*	*	*	*	*	*	*
!	!	!	!	!	!LO:MO:mod=De-	!	!
1BB-	-ca-	1.B-	.	1d	DE-	.	.
*	*	*	*	*	*	*2\right	*
!	!	!	!	!	!	!LO:TX:t=P:problem:kreska pseudotaktowa	!
.	.	.	.	.	.	2d\	-gnus
=7-	=7-	=7-	=7-	=7-	=7-	=7-	=7-
*	*	*	*	*2\right	*	*	*
!	!	!	!	!	!LO:MO:mod=-i	!	!LO:MO:mod=De-
1E-X	.	.	.	2B-\	-I	1g	DE-
!	!	!LO:TX:t=P:problem:przekreślona synkopowana wartość	!	!LO:TX:t=P:problem:kreska pseudotaktowa	!	!	!
.	.	1G	.	2G/	qui	.	.
*Xlig	*	*	*	*	*	*	*
!	!	!	!	!	!	!	!LO:MO:mod=-i
1C	-ta	.	.	2.c\	tol-	2e-X\	-I
!	!	!LO:TX:t=P:problem:przekreślona synkopowana wartość	!	!	!	!LO:TX:t=P:problem:kreska pseudotaktowa	!
.	.	1c\	-ta	.	.	2c/	qui
.	.	.	.	4B-\	.	.	.
=8-	=8-	=8-	=8-	=8-	=8-	=8-	=8-
1FF	mun-	.	.	4A/	.	2.f\	tol-
.	.	.	.	4G/	.	.	.
!	!	!LO:TX:t=P:problem:kreska pseudotaktowa, między nutą a kropką	!	!LO:TX:t=P:problem:kreska pseudotaktowa	!	!	!
.	.	2.f\	mun-	2A/	.	.	.
.	.	.	.	.	.	4e-X\	.
1BB-	-di	.	.	1B-	-lis	4d\	.
.	.	4e-X\	.	.	.	4c/	.
.	.	4d\	.	.	.	4B-/	.
!	!	!	!	!	!	!LO:TX:t=P:problem:kreska pseudotaktowa	!
.	.	4c\	.	.	.	4c/	.
=9-	=9-	=9-	=9-	=9-	=9-	=9-	=9-
!	!	!LO:TX:t=P:problem:kreska pseudotaktowa	!	!	!	!	!
2r	.	1B-	-di	2B-\	pec-	4d\	.
!	!	!	!	!	!	!LO:SIC:s=4e-i	!
.	.	.	.	.	.	4e-y\	.
!LO:TX:t=P:problem:kreska pseudotaktowa	!	!	!	!	!	!	!
2B-\	pec-	.	.	1d	-ca-	4f\	.
.	.	.	.	.	.	4g\	.
*custos:G	*	*	*	*	*	*	*
!LO:LB:g=original	!	!	!	!	!	!	!
2G\	-ca-	1r	.	.	.	1e-X	.
!LO:TX:t=P:problem:kreska pseudotaktowa	!	!	!	!LO:TX:t=P:problem:kreska pseudotaktowa	!	!	!
2A\	-ta	.	.	2c\	.	.	.
*	*	*	*	*custos:d	*	*	*
!	!	!	!	!LO:LB:g=original	!	!	!
=10-	=10-	=10-	=10-	=10-	=10-	=10-	=10-
4B-\	mun-	2r	.	2d\	-ta	2d\	-lis
4A\	.	.	.	.	.	.	.
!	!	!LO:TX:t=P:problem:kreska pseudotaktowa	!	!	!	!LO:TX:t=P:problem:kreska pseudotaktowa	!
4G\	.	2B-\	pec-	2d\	mu(n)-	2g\	pec-
4F\	.	.	.	.	.	.	.
*	*	*custos:G	*	*	*	*	*
!	!	!LO:PB:g=original	!	!	!	!	!
2E-X\	.	2G/	-ca-	2e-X\	.	2g\	-ca-
!LO:TX:t=P:problem:kreska pseudotaktowa	!	!LO:TX:t=P:problem:kreska pseudotaktowa	!	!LO:TX:t=P:problem:kreska pseudotaktowa	!	!	!
2F\	.	2A/	-ta	2c\	.	2f\	-ta
=11-	=11-	=11-	=11-	=11-	=11-	=11-	=11-
*	*	*	*	*	*	*	*ij
2BB-/	-di	4B-/	mun-	2d\	-di	2f\	pec-
.	.	4A/	.	.	.	.	.
2B-\	pec-	4G/	.	2d\	pec-	1g	-ca-
.	.	4F/	.	.	.	.	.
2B-\	-ca-	2E-X/	.	2.c\	-ca-	.	.
!LO:TX:t=P:problem:kreska pseudotaktowa	!	!LO:TX:t=P:problem:kreska pseudotaktowa	!	!	!	!LO:TX:t=P:problem:kreska pseudotaktowa	!
2A\	-ta	2F/	.	.	.	2f\	-ta
!	!	!	!	!LO:TX:t=P:problem:kreska pseudotaktowa	!	!	!
.	.	.	.	4c\	-ta	.	.
=12-	=12-	=12-	=12-	=12-	=12-	=12-	=12-
*	*	*	*	*	*	*lig	*
4B-\	mun-	2BB-/	di	1.B-	mu(n)-	1d	mun-
4A\	.	.	.	.	.	.	.
*	*	*	*ij	*	*	*	*
!	!	!LO:TX:t=P:problem:kreska pseudotaktowa	!	!	!	!	!
4G\	.	2B-\	pec-	.	.	.	.
4F\	.	.	.	.	.	.	.
2E-X\	.	2G/	-ca-	.	.	1c	.
!LO:TX:t=P:problem:kreska pseudotaktowa	!	!LO:TX:t=P:problem:kreska pseudotaktowa	!	!	!	!	!
2F\	.	2F/	-ta	2A/	.	.	.
*	*	*	*Xij	*	*	*Xlig	*
=13-	=13-	=13-	=13-	=13-	=13-	=13-	=13-
!	!	!	!	!LO:TX:t=P:problem:kreska pseudotaktowa	!	!	!
2BB-/	-di	2F/	pec-	1B-	-di	2d\	-di
!	!	!	!	!	!	!LO:TX:t=P:problem:kreska pseudotaktowa	!
2BB-/	pec-	2B-\	-ca-	.	.	2g\	pec-
2C/	-ca-	4G/	.	2r	.	2e-X\	-ca-
.	.	4c\	.	.	.	.	.
!	!	!	!	!	!	!LO:TX:t=P:problem:kreska pseudotaktowa	!
2D/	-ta	4B-\	.	2d\	pec-	2f\	-ta
!	!	!LO:TX:t=P:problem:kreska pseudotaktowa	!	!	!	!	!
.	.	4A/	.	.	.	.	.
=14-	=14-	=14-	=14-	=14-	=14-	=14-	=14-
*lig	*	*	*	*	*	*	*
1E-X	mun-	2.G/	.	2B-\	-ca-	1.g	mun-
!	!	!	!	!LO:TX:t=P:problem:kreska pseudotaktowa	!	!	!
.	.	.	.	2c\	-ta	.	.
.	.	4A/	-ta	.	.	.	.
!LO:TX:t=P:problem:kreska pseudotaktowa	!	!	!	!	!	!	!
1D	.	2B-\	mun-	1d	mu(n)-	.	.
!	!	!	!	!	!	!LO:TX:b:t=P:problem:# below	!
!	!	!LO:TX:t=P:problem:kreska pseudotaktowa	!	!	!	!LO:TX:t=P:problem:kreska pseudotaktowa	!
.	.	2A/	-di	.	.	2f#X\	.
*Xlig	*	*	*	*	*	*	*
=15-	=15-	=15-	=15-	=15-	=15-	=15-	=15-
!	!	!	!	!LO:TX:t=P:problem:kreska pseudotaktowa	!	!	!
1GG	-di	1B-	mi-	1d	-di	2g\	-di
*	*	*	*	*	*	*	*Xij
.	.	.	.	.	.	2g\	mi-
2G\	mi-	2B-\	-ſe-	2r	.	2d\	-ſe-
!	!	!LO:TX:t=P:problem:kreska pseudotaktowa	!	!	!	!	!
2D/	-ſe-	2F/	-re-	2d\	mi-	2.fny\	-re-
=16-	=16-	=16-	=16-	=16-	=16-	=16-	=16-
1F	-re-	2.A\	-re	2A/	-ſe-	.	.
.	.	.	.	.	.	8eny\L	.
.	.	.	.	.	.	8d\J	.
.	.	.	.	1c	-re-	4c/	.
.	.	4B-\	.	.	.	4d\	.
*	*	*lig	*	*	*	*	*
2C/	-re	1c	.	.	.	2e-X\	.
!	!	!	!	!LO:TX:t=P:problem:kreska pseudotaktowa	!	!LO:TX:t=P:problem:kreska pseudotaktowa	!
2C/	mi-	.	.	2G/	-re	2e-\	-re
*	*	*	*	*	*	*custos:g	*
!	!	!	!	!	!	!LO:LB:g=original	!
=17-	=17-	=17-	=17-	=17-	=17-	=17-	=17-
*	*	*	*	*	*ij	*	*ij
2GG/	-ſe-	1.d	.	2B-/	mi-	2g\	mi-
!	!	!	!	!	!	!LO:TX:t=P:problem:kreska pseudotaktowa	!
1BB-	-re-	.	.	2F/	-ſe-	2d\	-ſe-
.	.	.	.	2B-\	-re-	1.f	-re-
*	*	*Xlig	*	*	*	*	*
!	!	!	!	!LO:TX:t=P:problem:kreska pseudotaktowa	!	!	!
2FF/	-re	2A/	.	2c\	-re	.	.
*	*	*	*	*	*Xij	*	*
=18-	=18-	=18-	=18-	=18-	=18-	=18-	=18-
!	!	!	!	!LO:TX:a:t=P:problem:# above	!	!	!
!	!	!	!	!LO:N:acc=#	!	!	!
0GG	no-	0G	no-	2Bn\	no-	.	.
.	.	.	.	1c	.	2e-X\	-re
*	*	*	*	*	*	*	*Xij
.	.	.	.	.	.	1d	no-
!	!	!	!	!LO:TX:a:t=P:problem:# above	!	!	!
!	!	!	!	!LO:N:acc=#	!	!	!
.	.	.	.	2Bn\	.	.	.
=19-	=19-	=19-	=19-	=19-	=19-	=19-	=19-
0Cl;	-bis	0Gl;	-bis	0cl;<	-bis	0enl;	-bis
!	!	!	!	!LO:LB:g=original	!	!	!
=20||	=20||	=20||	=20||	=20||	=20||	=20||	=20||
*M2/1	*	*M2/1	*	*M2/1	*	*M2/1	*
*met(C|)	*	*met(C|)	*	*met(C|)	*	*met(C|)	*
*mmet(c)	*	*mmet(c)	*	*mmet(c)	*	*mmet(c)	*
!	!	!	!	!	!	!LO:TX:t=P:problem:kreska pseudotaktowa	!
00r	.	00r	.	1r	.	1c	A-
.	.	.	.	2r	.	2d,<\	-gnus
!	!	!	!	!LO:TX:t=P:problem:kreska pseudotaktowa	!	!	!LO:MO:mod=De-
.	.	.	.	2F/	A-	1f\	DE-
=21-	=21-	=21-	=21-	=21-	=21-	=21-	=21-
.	.	.	.	2A/	-gnus	.	.
!	!	!	!	!	!LO:MO:mod=De-	!	!
.	.	.	.	1c	DE-	4e\	.
!	!	!	!	!	!	!LO:TX:t=P:problem:kreska pseudotaktowa	!
.	.	.	.	.	.	4d\	.
.	.	.	.	.	.	4e\	.
.	.	.	.	.	.	4f\	.
*	*	*	*	*	*	*lig	*
.	.	.	.	4B-\	.	1g\	.
!	!	!	!	!LO:TX:t=P:problem:kreska pseudotaktowa	!	!	!
.	.	.	.	4A\	.	.	.
=22-	=22-	=22-	=22-	=22-	=22-	=22-	=22-
!LO:TX:t=P:problem:kreska pseudotaktowa	!	!LO:TX:t=P:problem:kreska pseudotaktowa	!	!	!	!	!
1r	.	0r	.	4B-\	.	.	.
.	.	.	.	4c\	.	.	.
!	!	!	!	!LO:TX:t=P:problem:kreska pseudotaktowa	!	!	!
.	.	.	.	2d\	.	1f	.
1C	A-	.	.	2G/	-i	.	.
*	*	*	*	*	*	*Xlig	*
!	!	!	!	!	!	!LO:TX:t=P:problem:kreska pseudotaktowa	!
.	.	.	.	2c\	qui	2e\	.
=23-	=23-	=23-	=23-	=23-	=23-	=23-	=23-
2D/	-gnus	1F	A-	2B-\	tol-	2d\	.
!	!LO:MO:mod=De-	!	!	!	!	!	!
1F	DE-	.	.	4A/	.	4c/	.
!	!	!	!	!LO:TX:t=P:problem:kreska pseudotaktowa	!	!LO:TX:t=P:problem:kreska pseudotaktowa	!
.	.	.	.	4G/	.	4B-/	.
.	.	2A\	-gnus	2A/	.	4c/	.
.	.	.	.	.	.	4d/	.
!	!	!	!LO:MO:mod=De-	!	!	!	!
4E\	.	1c\	DE-	4G/	.	1e\	.
!LO:TX:t=P:problem:kreska pseudotaktowa	!	!	!	!	!	!	!
4D\	.	.	.	4F/	.	.	.
=24-	=24-	=24-	=24-	=24-	=24-	=24-	=24-
4E\	.	.	.	4G/	.	.	.
4F\	.	.	.	4A/	.	.	.
1G	.	4B-\	.	1B-	.	4d\	.
!	!	!LO:TX:t=P:problem:kreska pseudotaktowa	!	!	!	!LO:TX:t=P:problem:kreska pseudotaktowa	!
.	.	4A\	.	.	.	4c/	.
.	.	4B-\	.	.	.	4d\	.
.	.	4c\	.	.	.	4e\	.
!	!	!	!	!LO:TX:t=P:problem:kreska pseudotaktowa	!	!	!
2F\	.	4d\	.	2A/	.	1f\	.
.	.	4c\	.	.	.	.	.
=25-	=25-	=25-	=25-	=25-	=25-	=25-	=25-
!LO:TX:t=P:problem:kreska pseudotaktowa	!	!LO:N:acc=#	!	!	!	!	!
0G	.	4Bn\	.	0G	.	.	.
.	.	4G/	.	.	.	.	.
!	!	!	!	!	!	!LO:TX:t=P:problem:kreska pseudotaktowa	!
.	.	1c	.	.	.	2e-X\	.
.	.	.	.	.	.	1d	.
.	.	2B\	.	.	.	.	.
=26-	=26-	=26-	=26-	=26-	=26-	=26-	=26-
!	!	!	!	!	!	!LO:TX:t=P:problem:kreska pseudotaktowa	!
!	!	!LO:TX:t=P:problem:kreska pseudotaktowa	!LO:MO:mod=-i	!	!	!LO:N:acc=#	!
1C	-i	1c	-I	2G,</	-lis	1en	-i
!	!	!	!	!LO:TX:t=P:problem:kreska pseudotaktowa	!	!	!
.	.	.	.	2G/	pec-	.	.
1C	qui	00r	.	2.A/	-ca-	1e	qui
.	.	.	.	4G/	.	.	.
=27-	=27-	=27-	=27-	=27-	=27-	=27-	=27-
2D/	tol-	.	.	4F/	.	2f\	tol-
.	.	.	.	4E/	.	.	.
!	!	!	!	!LO:TX:t=P:problem:kreska pseudotaktowa	!	!	!
4D/	-lis	.	.	2D/	.	4f,<\	-lis
!LO:TX:t=P:problem:kreska pseudotaktowa	!LO:MO:mod=pec-	!	!	!	!	!LO:TX:t=P:problem:kreska pseudotaktowa	!
4C/	p(ec)-	.	.	.	.	4e\	pec-
*	*	*	*	*	*	*custos:d	*
!	!	!	!	!	!	!LO:PB:g=original	!
2BB-/	-ca-	.	.	2d\	.	4d\	-ca-
.	.	.	.	.	.	4e\	.
2AA/	-ta	.	.	2c\	ta	1f\	-ta
=28-	=28-	=28-	=28-	=28-	=28-	=28-	=28-
1GG	mu(n)-	.	.	(1B-	mun-	.	.
!	!	!	!	!	!	!LO:TX:t=P:problem:kreska pseudotaktowa	!
.	.	.	.	.	.	2e\	mun-
!	!	!	!	!LO:TX:t=P:problem:kreska pseudotaktowa	!	!	!
2FF/	-di	2c\	qui	1A)	.	1.f	-di
!LO:TX:t=P:problem:kreska pseudotaktowa	!	!LO:TX:t=P:problem:kreska pseudotaktowa	!	!	!	!	!
2F\	qui	2d\	tol-	.	.	.	.
=29-	=29-	=29-	=29-	=29-	=29-	=29-	=29-
2G\	tol-	4d\	-lis-	2B-,<\	-di	.	.
.	.	4c\	.	.	.	.	.
*	*	*	*	*	*	*	*ij
!	!	!	!	!LO:TX:t=P:problem:kreska pseudotaktowa	!	!LO:TX:t=P:problem:kreska pseudotaktowa	!
4G\	-lis	4B-y\	-lis	2B-\	pec-	2d\	qui
!	!	!LO:TX:t=P:problem:kreska pseudotaktowa	!	!	!	!	!
4F\	pec-	4A/	pec-	.	.	.	.
2.E-X\	-ca-	2G/	-ca-	2.c\	-ca-	2e-X\	tol-
.	.	2c\	-ta	.	.	4e-\	-lis
4E-\	-ta	.	.	4B-\	.	4d\	pec-
=30-	=30-	=30-	=30-	=30-	=30-	=30-	=30-
0F	mu(n)-	0F	mun-	4A/	.	2c/	-ca-
.	.	.	.	4F/	ta	.	.
.	.	.	.	1B-	mun-	2d\	-ta
.	.	.	.	.	.	1c	mun-
!	!	!	!	!LO:TX:t=P:problem:kreska pseudotaktowa	!	!	!
.	.	.	.	2A/	.	.	.
*	*	*	*	*custos:B	*	*	*
!	!	!	!	!LO:PB:g=original	!	!	!
=31-	=31-	=31-	=31-	=31-	=31-	=31-	=31-
*M3/1	*	*M3/1	*	*M3/1	*	*M3/1	*
*	*	*col	*	*	*	*	*
1BB-	-di	1F	-di	1B-	-di	0d	-di
*	*	*	*	*	*	*	*Xij
!LO:TX:t=P:problem:kreska pseudotaktowa	!	!LO:TX:t=P:problem:kreska pseudotaktowa	!	!LO:TX:t=P:problem:kreska pseudotaktowa	!	!	!
0BB-	mi-	0B-	mi-	0d	mi-	.	.
!	!	!	!	!	!	!LO:TX:t=P:problem:kreska pseudotaktowa	!
.	.	.	.	.	.	1f	mi-
*	*	*Xcol	*	*	*	*	*
=32-	=32-	=32-	=32-	=32-	=32-	=32-	=32-
1FF	-ſe-	1A	-ſe-	1c	-ſe-	1f	-ſe-
!LO:TX:t=P:problem:kreska pseudotaktowa	!	!LO:TX:t=P:problem:kreska pseudotaktowa	!	!LO:TX:t=P:problem:kreska pseudotaktowa	!	!LO:TX:t=P:problem:kreska pseudotaktowa	!
0GG	-re-	0G	-re-	0B-	-re-	0d	-re-
=33-	=33-	=33-	=33-	=33-	=33-	=33-	=33-
1AA	-re	1F	-re	1A	-re	1c	-re
*lig	*	*lig	*	*	*	*lig	*
1BB-	no-	1F	no-	0G	no-	1d	no-
1C	.	1E	.	.	.	1c	.
*Xlig	*	*Xlig	*	*	*	*Xlig	*
=34-	=34-	=34-	=34-	=34-	=34-	=34-	=34-
!	!	!LO:SIC:s=0.F;	!	!	!	!	!
0.FFl;	-bis	0.Fl;;	-bis	0.Al;	-bis	0.cl;	-bis
=35||	=35||	=35||	=35||	=35||	=35||	=35||	=35||
*M2/1	*	*M2/1	*	*M2/1	*	*M2/1	*
*met(C|)	*	*met(C|)	*	*met(C|)	*	*met(C|)	*
*mmet(c)	*	*mmet(c)	*	*mmet(c)	*	*mmet(c)	*
!	!	!LO:TX:t=P:problem:kreska pseudotaktowa	!	!	!	!	!
00r	.	00r	.	00r	.	1.c	A-
!	!	!	!	!	!	!LO:TX:t=P:problem:kreska pseudotaktowa	!
.	.	.	.	.	.	2c/	-gnus
=36-	=36-	=36-	=36-	=36-	=36-	=36-	=36-
!	!	!	!	!	!	!	!LO:MO:mod=De-
.	.	.	.	.	.	1d	DE-
!	!	!	!	!	!	!	!LO:MO:mod=-i
.	.	.	.	.	.	2eny\	-I
!	!	!	!	!	!	!LO:TX:t=P:problem:kreska pseudotaktowa	!
.	.	.	.	.	.	2c/	qui
=37-	=37-	=37-	=37-	=37-	=37-	=37-	=37-
!LO:TX:t=P:problem:kreska pseudotaktowa	!	!	!	!	!	!	!
00r	.	1.F	A-	00r	.	2.f\	tol-
.	.	.	.	.	.	4e\	.
.	.	.	.	.	.	4d\	.
.	.	.	.	.	.	4c/	.
!	!	!LO:TX:t=P:problem:kreska pseudotaktowa	!	!	!	!	!
.	.	2F/	-gnus	.	.	4c/	.
.	.	.	.	.	.	8B-/L	.
!	!	!	!	!	!	!LO:TX:t=P:problem:kreska pseudotaktowa	!
.	.	.	.	.	.	8A/J	.
*	*	*	*	*	*	*custos:B	*
!	!	!	!	!	!	!LO:LB:g=original	!
=38-	=38-	=38-	=38-	=38-	=38-	=38-	=38-
!	!	!	!LO:MO:mod=De-	!	!	!	!
.	.	1G	DE-	.	.	1B-	.
!	!	!	!LO:MO:mod=-i	!	!	!	!
.	.	2A/	-I	.	.	2c\	-lis
!	!	!	!	!	!	!LO:TX:t=P:problem:kreska pseudotaktowa	!
.	.	2F/	qui	.	.	2d\	pec-
=39-	=39-	=39-	=39-	=39-	=39-	=39-	=39-
!	!	!	!	!LO:TX:t=P:problem:kreska pseudotaktowa	!	!	!
1.C	A-	2.c\	tol-	00r	.	4e\	-ca-
.	.	.	.	.	.	4f\	.
.	.	.	.	.	.	2.g\	.
!	!	!LO:TX:t=P:problem:kreska pseudotaktowa	!	!	!	!	!
.	.	4B-\	.	.	.	.	.
.	.	2A/	.	.	.	.	.
.	.	.	.	.	.	2f\	.
!LO:TX:t=P:problem:kreska pseudotaktowa	!	!LO:TX:t=P:problem:kreska pseudotaktowa	!	!	!	!	!
2C/	-gnus	2G/	.	.	.	.	.
!	!	!	!	!	!	!LO:TX:t=P:problem:kreska pseudotaktowa	!
.	.	.	.	.	.	4e\	.
=40-	=40-	=40-	=40-	=40-	=40-	=40-	=40-
!	!LO:MO:mod=De-	!	!	!	!	!	!
1D	DE-	4F/	.	.	.	4d\	.
.	.	4G/	.	.	.	4e\	.
.	.	4A/	.	.	.	4f\	.
.	.	4B-\	.	.	.	8e\L	.
!	!	!	!	!	!	!LO:TX:t=P:problem:kreska pseudotaktowa	!
.	.	.	.	.	.	8d\J	.
!	!LO:MO:mod=-i	!	!	!	!	!	!
2E\	-I	2.c\	.	.	.	2c/	.
!LO:TX:t=P:problem:kreska pseudotaktowa	!	!	!	!	!	!	!
2C/	qui	.	.	.	.	4e\	-ta
!	!	!LO:TX:t=P:problem:kreska pseudotaktowa	!	!	!	!	!
.	.	4B-\	.	.	.	4e\	pec-
=41-	=41-	=41-	=41-	=41-	=41-	=41-	=41-
2.F\	tol-	2.A/	.	1.F	A-	4a\	.
.	.	.	.	.	.	4g\	.
.	.	.	.	.	.	2.f\	-ca-
!	!	!LO:TX:t=P:problem:kreska pseudotaktowa	!	!	!	!	!
4E\	.	4G/	.	.	.	.	.
4D/	.	1.F	.	.	.	.	.
4C/	.	.	.	.	.	4e\	.
!	!	!	!	!LO:TX:t=P:problem:kreska pseudotaktowa	!	!	!
4BB-/	.	.	.	2F/	-gnus	4d\	.
!LO:TX:t=P:problem:kreska pseudotaktowa	!	!	!	!	!	!LO:TX:t=P:problem:kreska pseudotaktowa	!
4AA/	.	.	.	.	.	4c/	-ta
=42-	=42-	=42-	=42-	=42-	=42-	=42-	=42-
!	!	!	!	!	!LO:MO:mod=De-	!	!LO:MO:mod=mun-
4GG/	.	.	.	1G	DE-	1B-	mu(n)-
4FF/	.	.	.	.	.	.	.
2GG/	.	2E/	.	.	.	.	.
!LO:TX:t=P:problem:kreska pseudotaktowa	!	!LO:TX:t=P:problem:kreska pseudotaktowa	!	!	!LO:MO:mod=-i	!LO:TX:t=P:problem:kreska pseudotaktowa	!
1FF	-lis	1F	-lis	2A/	-I	1A	-di
!	!	!	!	!LO:TX:t=P:problem:kreska pseudotaktowa	!	!	!
.	.	.	.	2F/	qui	.	.
=43-	=43-	=43-	=43-	=43-	=43-	=43-	=43-
2r	.	1r	.	1c	tol-	2r	.
2C/	pec-	.	.	.	.	2e\	pec-
1F	-ca-	2r	.	2A/	-lis	1a	-ca-
!	!	!LO:TX:t=P:problem:kreska pseudotaktowa	!	!LO:TX:t=P:problem:kreska pseudotaktowa	!	!	!
.	.	2c\	pec-	2A/	pec-	.	.
=44-	=44-	=44-	=44-	=44-	=44-	=44-	=44-
2D/	-ta	2f\	-ca-	2.d\	-ca-	2f\	-ta
*	*	*	*	*	*	*	*ij
!LO:TX:t=P:problem:kreska pseudotaktowa	!	!	!	!	!	!LO:TX:t=P:problem:kreska pseudotaktowa	!
2D/	pec-	1d	-ta	.	.	2f\	pec-
!	!	!	!	!LO:TX:t=P:problem:kreska pseudotaktowa	!	!	!
.	.	.	.	4c\	.	.	.
2.G\	-ca-	.	.	4B-\	.	1.g	-ca-
.	.	.	.	4A/	.	.	.
*	*	*	*ij	*	*	*	*
.	.	1B-\	pec-	2.G/	.	.	.
4F\	.	.	.	.	.	.	.
=45-	=45-	=45-	=45-	=45-	=45-	=45-	=45-
2E-X\	.	.	.	.	.	.	.
.	.	.	.	4A/	.	.	.
2E-\	-ta	1e-X	-ca-	4B-\	.	2g\	.
!	!	!	!	!LO:TX:t=P:problem:kreska pseudotaktowa	!	!	!
.	.	.	.	4G/	-ta	.	.
!LO:TX:t=P:problem:kreska pseudotaktowa	!	!	!	!	!	!LO:TX:t=P:problem:kreska pseudotaktowa	!
0F	mun-	.	.	2A/	mun-	0f	-ta
*	*	*	*	*	*	*	*Xij
!	!	!LO:TX:t=P:problem:kreska pseudotaktowa	!	!	!	!	!
.	.	2d\	-ta	1B-\	.	.	.
*	*	*	*Xij	*	*	*	*
=46-	=46-	=46-	=46-	=46-	=46-	=46-	=46-
.	.	1c	mun-	.	.	.	.
!	!	!	!	!LO:TX:t=P:problem:kreska pseudotaktowa	!	!	!
.	.	.	.	2A/	.	.	.
!	!	!LO:TX:t=P:problem:kreska pseudotaktowa	!	!	!	!	!
2BB-/	-di	1d	-di	1B-	-di	2f\	mun-
*	*ij	*	*	*	*	*	*
!	!	!	!	!	!	!LO:TX:t=P:problem:kreska pseudotaktowa	!
2BB-/	pec-	.	.	.	.	2d\	-di
*	*	*custos:G	*	*	*	*	*
!	!	!LO:LB:g=original	!	!	!	!	!
=47-	=47-	=47-	=47-	=47-	=47-	=47-	=47-
*	*	*	*	*	*	*	*ij
!	!	!	!	!	!LO:MO:mod=pec-	!	!
1E-X	-ca-	2G/	pec-	2B-\	p(ec)-	1g	pec-
.	.	1e-X	-ca-	1G	-ca-	.	.
!LO:TX:t=P:problem:kreska pseudotaktowa	!	!	!	!	!	!	!
1C	-ta	.	.	.	.	2g\	ca-
!	!	!LO:TX:t=P:problem:kreska pseudotaktowa	!	!LO:TX:t=P:problem:kreska pseudotaktowa	!	!LO:TX:t=P:problem:kreska pseudotaktowa	!
.	.	2c\	-ta	2e-X\	-ta	2g\	.
*	*	*	*	*custos:d	*	*	*
!	!	!	!	!LO:LB:g=original	!	!	!
=48-	=48-	=48-	=48-	=48-	=48-	=48-	=48-
!	!	!LO:N:acc=#	!	!	!	!	!
0GG	mun-	2Bn\	mun-	2d\	mun-	2g\	.
!	!	!	!	!	!	!LO:TX:t=P:problem:kreska pseudotaktowa	!
.	.	1c	.	2c\	.	2e-X\	-ta
*	*	*	*	*	*	*custos:d	*
!	!	!	!	!	!	!LO:LB:g=original	!
.	.	.	.	2d\	.	1d	mun-
.	.	2B\	.	2G/	.	.	.
=49-	=49-	=49-	=49-	=49-	=49-	=49-	=49-
!	!	!	!	!	!	!LO:TX:t=P:problem:kreska pseudotaktowa	!
!LO:TX:t=P:problem:kreska pseudotaktowa	!	!LO:TX:t=P:problem:kreska pseudotaktowa	!	!LO:TX:t=P:problem:kreska pseudotaktowa	!	!LO:N:acc=#	!
1C	-di	1c	-di	1G	-di	1en	-di
*	*Xij	*	*	*	*	*	*Xij
!	!	!LO:TX:t=P:problem:kreska pseudotaktowa	!	!	!	!	!
1C	do-	0r	.	2r	.	0r	.
.	.	.	.	2c\	do-	.	.
=50-	=50-	=50-	=50-	=50-	=50-	=50-	=50-
!LO:TX:t=P:problem:kreska pseudotaktowa	!	!	!	!	!	!	!
1D	-na	.	.	2F/	-na	.	.
!	!	!	!	!LO:TX:t=P:problem:kreska pseudotaktowa	!	!	!
.	.	.	.	2B-\	no-	.	.
!	!	!	!	!	!	!LO:TX:t=P:problem:kreska pseudotaktowa	!
1Eny	no-	2r	.	1G	-bis	1r	.
!	!	!LO:TX:t=P:problem:kreska pseudotaktowa	!	!	!	!	!
.	.	2c\	do-	.	.	.	.
=51-	=51-	=51-	=51-	=51-	=51-	=51-	=51-
1F	-bis	2F/	-na	4A\	pa-	2r	.
.	.	.	.	4B-\	.	.	.
.	.	1f	no-	4c\	.	2a\	do-
!	!	!	!	!LO:TX:t=P:problem:kreska pseudotaktowa	!	!	!
.	.	.	.	4d\	.	.	.
*	*	*	*	*lig	*	*	*
1G	pa-	.	.	1B-	.	2d\	-na
!	!	!	!	!	!	!LO:TX:t=P:problem:kreska pseudotaktowa, między nutą a kropką	!
.	.	4eny\	-bis	.	.	2.g\	no-
!	!	!LO:TX:t=P:problem:kreska pseudotaktowa	!	!	!	!	!
.	.	4d\	.	.	.	.	.
=52-	=52-	=52-	=52-	=52-	=52-	=52-	=52-
!LO:TX:t=P:problem:kreska pseudotaktowa	!LO:MO:mod=-cem	!	!	!	!	!	!
1A	-ce(m)	4c#X\	pa-	1A	.	.	.
.	.	2d\	.	.	.	4f\	-bis
!	!	!	!	!	!	!LO:TX:t=P:problem:kreska pseudotaktowa	!
.	.	.	.	.	.	2e\	pa-
!	!	!LO:TX:t=P:problem:kreska pseudotaktowa	!	!	!	!	!
.	.	4c#\	.	.	.	.	.
*custos:D	*	*	*	*Xlig	*	*	*
!LO:LB:g=original	!	!	!	!	!	!	!
!LO:TX:t=P:problem:kreska pseudotaktowa	!	!	!	!LO:TX:t=P:problem:kreska pseudotaktowa	!	!	!
1r	.	2d\	-cem	1D	-cem	1f	-cem
.	.	2d\	do-	.	.	.	.
=53-	=53-	=53-	=53-	=53-	=53-	=53-	=53-
*	*ij	*	*	*	*	*	*ij
2D/	do-	2A/	-na	0r	.	2f\	do-
!	!	!LO:TX:t=P:problem:kreska pseudotaktowa	!	!	!	!LO:TX:t=P:problem:kreska pseudotaktowa	!
2AA/	-na	2cny\	no-	.	.	2c/	-na
!	!	!LO:TX:b:t=a	!	!	!	!	!
2C/	no-	2G/	-bis	.	.	4e\	no-
.	.	.	.	.	.	4f\	.
2GG/	-bis	4B-y\	pa-	.	.	4g\	.
!	!	!LO:TX:t=P:problem:kreska pseudotaktowa	!	!	!	!	!
.	.	4c\	.	.	.	8f\L	.
!	!	!	!	!	!	!LO:TX:t=P:problem:kreska pseudotaktowa	!
.	.	.	.	.	.	8e\J	.
=54-	=54-	=54-	=54-	=54-	=54-	=54-	=54-
*	*	*	*	*	*ij	*	*
2.BB-/	pa-	2.d\	.	1F	do-	4d/	.
.	.	.	.	.	.	4B-/	.
.	.	.	.	.	.	1f	-bis
4AA/	.	4c\	.	.	.	.	.
!	!	!	!	!LO:TX:t=P:problem:kreska pseudotaktowa	!	!	!
1GG	.	1B-	.	1G	-na	.	.
.	.	.	.	.	.	2e\	pa-
=55-	=55-	=55-	=55-	=55-	=55-	=55-	=55-
!LO:TX:t=P:problem:kreska pseudotaktowa	!LO:MO:mod=-cem	!	!	!	!	!LO:TX:t=P:problem:kreska pseudotaktowa	!
1FF	-ce(m)	2c\	-cem	1A	no-	1f	-cem
!	!	!LO:TX:t=P:problem:kreska pseudotaktowa	!	!	!	!	!
.	.	2F/	do-	.	.	.	.
!	!	!	!	!LO:TX:t=P:problem:kreska pseudotaktowa	!	!	!
2r	.	1G	-na	1B-	-bis	1r	.
!LO:TX:t=P:problem:kreska pseudotaktowa	!	!	!	!	!	!	!
2E-X\	do-	.	.	.	.	.	.
=56-	=56-	=56-	=56-	=56-	=56-	=56-	=56-
2C/	-na	1A	no-	1c	pa-	2r	.
!	!	!	!	!	!	!LO:TX:t=P:problem:kreska pseudotaktowa	!
2F\	no-	.	.	.	.	2a\	do-
!	!	!	!	!LO:TX:t=P:problem:kreska pseudotaktowa	!	!	!
2BB-/	-bis	1B-	-bis	1d	-cem	2d\	-na
*	*	*	*	*	*Xij	*	*
1B-\	pa-	.	.	.	.	4g\	no-
.	.	.	.	.	.	4f\	.
=57-	=57-	=57-	=57-	=57-	=57-	=57-	=57-
.	.	1c	pa-	1r	.	4e-X\	.
.	.	.	.	.	.	4d\	.
!	!	!	!	!	!	!LO:TX:t=P:problem:kreska pseudotaktowa	!
2A\	.	.	.	.	.	2e-\	-bis
!LO:TX:t=P:problem:kreska pseudotaktowa	!LO:MO:mod=-cem	!LO:TX:t=P:problem:kreska pseudotaktowa	!	!	!	!	!
1B-	-ce(m)	1d	-cem	2r	.	1d	pa-
!	!	!	!	!LO:TX:t=P:problem:kreska pseudotaktowa	!	!	!
.	.	.	.	2G/	no-	.	.
*	*	*custos:c	*	*	*	*	*
!	!	!LO:LB:g=original	!	!	!	!	!
=58-	=58-	=58-	=58-	=58-	=58-	=58-	=58-
!	!	!	!	!	!	!LO:TX:t=P:problem:kreska pseudotaktowa	!
!	!	!	!	!	!	!LO:N:acc=#	!
2r	.	0r	.	2C/	.	1en	-cem
*	*	*	*	*	*	*	*Xij
2C/	do-	.	.	4c\	.	.	.
!	!	!	!	!LO:TX:t=P:problem:kreska pseudotaktowa	!	!	!
.	.	.	.	4B-\	.	.	.
2FF/	-na	.	.	4A/	.	1c	do-
.	.	.	.	4G/	.	.	.
!	!	!	!	!LO:TX:t=P:problem:kreska pseudotaktowa	!	!	!
4F\	no-	.	.	2A/	.	.	.
!LO:TX:t=P:problem:kreska pseudotaktowa	!	!	!	!	!	!	!
4Eny\	.	.	.	.	.	.	.
=59-	=59-	=59-	=59-	=59-	=59-	=59-	=59-
!	!	!LO:TX:t=P:problem:kreska pseudotaktowa	!	!	!	!LO:TX:t=P:problem:kreska pseudotaktowa	!
4D/	.	1r	.	2.B-\	.	1d	-na
4C/	.	.	.	.	.	.	.
2BB-/	.	.	.	.	.	.	.
.	.	.	.	4A/	.	.	.
1C	-bis	2r	.	4G/	.	1e	no-
.	.	.	.	4F/	bis	.	.
!	!	!	!	!LO:TX:t=P:problem:kreska pseudotaktowa	!	!	!
.	.	2c\	do-	2G/	pa-	.	.
=60-	=60-	=60-	=60-	=60-	=60-	=60-	=60-
*lig	*	*	*	*	*	*	*
!	!	!	!	!	!	!LO:TX:t=P:problem:kreska pseudotaktowa	!
1D	pa-	2A/	-na	2F,</	-cem	(<1f	-bis
*	*	*	*	*custos:B	*	*	*
!	!	!	!	!LO:LB:g=original	!	!	!
!	!	!	!	!LO:TX:t=P:problem:kreska pseudotaktowa	!	!	!
.	.	1d	no-	2B-\	do-	.	.
*	*	*	*	*	*	*custos:g	*
!	!	!	!	!	!	!LO:LB:g=original	!
1E	.	.	.	2G/	-na	1g)	.
*	*	*	*	*lig	*	*	*
.	.	4c\	.	1c\	no-	.	.
!	!	!LO:TX:t=P:problem:kreska pseudotaktowa	!	!	!	!	!
.	.	4B-\	.	.	.	.	.
*Xlig	*	*	*	*	*	*	*
=61-	=61-	=61-	=61-	=61-	=61-	=61-	=61-
*lig	*	*	*	*	*	*	*
1F	.	2.A/	.	.	.	2a\	pa-
.	.	.	.	1d	.	1f	-cem
.	.	8G/L	.	.	.	.	.
.	.	8A/J	.	.	.	.	.
1G	.	1B-	.	.	.	.	.
*	*	*	*	*Xlig	*	*	*ij
!	!	!	!	!	!	!LO:TX:t=P:problem:kreska pseudotaktowa	!
.	.	.	.	4c\	.	2e\	do-
!	!	!	!	!LO:TX:t=P:problem:kreska pseudotaktowa	!	!	!
.	.	.	.	4B-\	.	.	.
*Xlig	*	*	*	*	*	*	*
=62-	=62-	=62-	=62-	=62-	=62-	=62-	=62-
*	*	*	*	*lig	*	*	*
!	!	!LO:TX:t=P:problem:kreska pseudotaktowa	!	!	!	!	!
2F\	.	1c	-bis	1A	.	2f\	-na
!LO:TX:t=P:problem:kreska pseudotaktowa	!	!	!	!	!	!	!
2FF/	cem	.	.	.	.	2f\	no-
1GG	do-	2r	.	1B-	.	2d\	-bis
*	*	*	*ij	*	*	*	*Xij
!	!	!LO:TX:t=P:problem:kreska pseudotaktowa	!	!	!	!LO:TX:t=P:problem:kreska pseudotaktowa	!
.	.	2G/	do-	.	.	2g\	do-
*	*	*	*	*Xlig	*	*	*
=63-	=63-	=63-	=63-	=63-	=63-	=63-	=63-
1AA	-na	2C/	-na	1c	-bis	2e\	-na
.	.	4F/	no-	.	.	4a\	no-
!	!	!LO:TX:t=P:problem:kreska pseudotaktowa	!	!	!	!LO:TX:t=P:problem:kreska pseudotaktowa	!
.	.	4E/	.	.	.	4g\	.
1BB-	no-	2D/	-bis	4d\	pa-	4f\	.
.	.	.	.	4c\	.	8e\L	.
.	.	.	.	.	.	8f\J	.
.	.	2d\	do-	4B-\	.	4g\	.
!	!	!	!	!LO:TX:t=P:problem:kreska pseudotaktowa	!	!LO:TX:t=P:problem:kreska pseudotaktowa	!
.	.	.	.	4A/	.	4f\	-bis
=64-	=64-	=64-	=64-	=64-	=64-	=64-	=64-
*lig	*	*	*	*	*	*	*
1C	-bis	2c\	-na	2G/	.	2.e\	pa-
*	*	*lig	*	*	*	*	*
.	.	1c	no-	1A	.	.	.
.	.	.	.	.	.	8d\L	.
!	!	!	!	!	!	!LO:TX:t=P:problem:kreska pseudotaktowa	!
.	.	.	.	.	.	8c\J	.
!LO:TX:t=P:problem:kreska pseudotaktowa	!	!	!	!	!	!	!
1D	.	.	.	.	.	2.f\	.
!	!	!	!	!LO:TX:t=P:problem:kreska pseudotaktowa	!	!	!
.	.	1B-\	.	2F/	.	.	.
.	.	.	.	.	.	8e\L	.
!	!	!	!	!	!	!LO:TX:t=P:problem:kreska pseudotaktowa	!
.	.	.	.	.	.	8d\J	.
*Xlig	*	*Xlig	*	*	*	*	*
=65-	=65-	=65-	=65-	=65-	=65-	=65-	=65-
0C	pa-	.	.	2G/	.	2e\	.
!	!	!LO:TX:t=P:problem:kreska pseudotaktowa	!	!	!	!	!
.	.	2A/	-bis	4A\	.	1f	.
.	.	.	.	4B-\	.	.	.
.	.	1G	pa-	1c	.	.	.
.	.	.	.	.	.	2e\	.
=66-	=66-	=66-	=66-	=66-	=66-	=66-	=66-
!LO:TX:a:i:t=AMDG.\nBVMH.:mod=	!LO:SIC:s=-cem.	!LO:TX:a:i:t=A M D G. BQVM'H.\nMMPR. Scripsit.\nAD 1661 4 Marti:mod=	!LO:SIC:s=-cem.	!LO:TX:a:i:t=AMDG.\nBVMH.:mod=	!LO:SIC:s=-cem.	!LO:TX:a:i:t=LD VMH:mod=	!
!LO:SIC:s=0FF;	!	!	!	!LO:SIC:s=0c;	!	!	!
0FFl;;	-ce(m)	0Al;	-cem	0cl;;	-cem	0fl;<	-cem.
*	*Xij	*	*Xij	*	*	*	*
==	==	==	==	==	==	==	==
*-	*-	*-	*-	*-	*-	*-	*-
!!!system-decoration: [(*)]
!!!RDF**kern: i = editorial accidental
!!!RDF**kern: < = below
!!LO:MO:ori
!!!RDF**kern: l = terminal long
!!LO:MO:end
!!!filter-modern: sic -sq | shed -e "s/TX(.*):t=P:/tx$1:t=P:/LG" | shed -k -e "s/LO:N:acc/LO:n:acc:/L" | shed -e "s/^(\d+[\/\\]right)/$1yy/I; s/^(\d+[\/\\]left)/$1yy/I" | shed -e "s/-//B" | autostem -r | tie -s | shed -k -e "s/[<>]//g" | shed -k -e "s/[<>]//g" | humtr -p | shed -e "s/^custos:/Xcustos:/I" | modori -m
!!!ENC: Andrzej Kubiczek
!!!END: 2022-05-08
!!!ENC: Andrzej Kubiczek
!!!END: 2022-05-09
!!!ENC-modern: Andrzej Borzym
!!!END-modern: 2022-06-27
